images/social/google.svg

<svg width="14" height="14" viewBox="0 0 14 14" fill="none" xmlns="http://www.w3.org/2000/svg">
<path fill-rule="evenodd" clip-rule="evenodd" d="M13.8751 5.60271H7.14791C7.14791 6.30231 7.14791 7.70152 7.14362 8.40113H11.0418C10.8925 9.10074 10.3628 10.0802 9.61449 10.5734C9.61377 10.5727 9.61306 10.5776 9.61163 10.5769C8.61671 11.2338 7.30372 11.3829 6.32881 11.187C4.80069 10.8833 3.59134 9.77516 3.10032 8.36755C3.10317 8.36545 3.10532 8.34586 3.10746 8.34446C2.80012 7.47135 2.80012 6.30231 3.10746 5.60271H3.10675C3.50272 4.31683 4.74851 3.14359 6.27878 2.82247C7.50957 2.56152 8.89832 2.84416 9.91968 3.79982C10.0555 3.6669 11.7995 1.96405 11.9303 1.82553C8.44088 -1.33459 2.85373 -0.222915 0.763104 3.85789H0.762389C0.762389 3.85789 0.763104 3.85789 0.758816 3.86558C-0.275418 5.86996 -0.232534 8.23183 0.765963 10.1404C0.763104 10.1425 0.76096 10.1438 0.758816 10.1459C1.66368 11.902 3.31045 13.2487 5.29458 13.7615C7.40236 14.3142 10.0848 13.9364 11.8817 12.3112C11.8824 12.3119 11.8831 12.3126 11.8838 12.3133C13.4062 10.9421 14.354 8.60612 13.8751 5.60271Z" fill="white"/>
</svg>

<svg width="14" height="14" fill="none" xmlns="http://www.w3.org/2000/svg"><path fill-rule="evenodd" clip-rule="evenodd" d="M13.875 5.603H7.148c0 .7 0 2.099-.004 2.798h3.898c-.15.7-.68 1.68-1.428 2.172 0 0 0 .005-.002.004-.995.657-2.308.806-3.283.61A4.33 4.33 0 013.1 8.367c.003-.002.005-.021.007-.023-.307-.873-.307-2.042 0-2.741.396-1.286 1.642-2.46 3.172-2.78 1.23-.261 2.62.021 3.64.977.136-.133 1.88-1.836 2.011-1.974C8.44-1.334 2.854-.223.763 3.858l-.004.008a6.837 6.837 0 00.007 6.274l-.007.006a7.126 7.126 0 004.536 3.615c2.107.553 4.79.175 6.587-1.45l.002.002c1.522-1.37 2.47-3.707 1.991-6.71z" fill="#fff"/></svg>
